markets/ONE.svg

<svg width="42" height="42" viewBox="0 0 42 42" fill="none" xmlns="http://www.w3.org/2000/svg">
<circle cx="21" cy="21" r="21" fill="url(#paint0_linear_7698_9730)"/>
<g clip-path="url(#clip0_7698_9730)">
<path d="M29.0197 7C27.4161 6.99876 25.8775 7.63386 24.7417 8.76589C23.6058 9.89792 22.9656 11.4344 22.9615 13.038V19.7327C22.3375 19.7748 21.6996 19.8013 21.0382 19.8013C20.3769 19.8013 19.742 19.8278 19.115 19.8652V13.038C19.0895 11.4483 18.4401 9.93231 17.3068 8.81713C16.1736 7.70194 14.6474 7.07693 13.0575 7.07693C11.4676 7.07693 9.94138 7.70194 8.80815 8.81713C7.67493 9.93231 7.02551 11.4483 7 13.038V29.0384C7.02551 30.6281 7.67493 32.1441 8.80815 33.2593C9.94138 34.3745 11.4676 34.9995 13.0575 34.9995C14.6474 34.9995 16.1736 34.3745 17.3068 33.2593C18.4401 32.1441 19.0895 30.6281 19.115 29.0384V22.3438C19.7389 22.3017 20.3769 22.2751 21.0382 22.2751C21.6996 22.2751 22.3344 22.2486 22.9615 22.2112V29.0384C22.987 30.6281 23.6364 32.1441 24.7696 33.2593C25.9028 34.3745 27.429 34.9995 29.0189 34.9995C30.6089 34.9995 32.1351 34.3745 33.2683 33.2593C34.4015 32.1441 35.0509 30.6281 35.0764 29.0384V13.038C35.0723 11.4346 34.4323 9.89842 33.2968 8.76644C32.1613 7.63445 30.6231 6.99917 29.0197 7ZM13.0567 9.47385C14.0031 9.47343 14.911 9.84846 15.5813 10.5166C16.2515 11.1848 16.6293 12.0916 16.6318 13.038V20.1273C14.8595 20.3841 13.1288 20.8734 11.4844 21.5826C10.772 21.8953 10.1013 22.2956 9.48788 22.7743V13.038C9.49036 12.0927 9.8673 11.1868 10.5362 10.5188C11.2051 9.85084 12.1114 9.47508 13.0567 9.47385ZM16.6318 29.0384C16.6318 29.9866 16.2551 30.8959 15.5847 31.5664C14.9142 32.2368 14.0049 32.6135 13.0567 32.6135C12.1085 32.6135 11.1992 32.2368 10.5288 31.5664C9.8583 30.8959 9.48165 29.9866 9.48165 29.0384V27.4334C9.48165 26.0155 10.6047 24.6726 12.4874 23.8365C13.814 23.2642 15.2059 22.8571 16.6318 22.6245V29.0384ZM29.0197 32.6026C28.0733 32.603 27.1654 32.228 26.4952 31.5598C25.8249 30.8916 25.4471 29.9848 25.4447 29.0384V21.9491C27.2169 21.6923 28.9476 21.203 30.592 20.4938C31.3045 20.1812 31.9752 19.7808 32.5885 19.3022V29.0384C32.5861 29.9838 32.2091 30.8896 31.5402 31.5576C30.8714 32.2256 29.965 32.6014 29.0197 32.6026ZM29.589 18.2306C28.2625 18.8029 26.8706 19.2099 25.4447 19.4425V13.038C25.4447 12.0898 25.8213 11.1805 26.4918 10.51C27.1622 9.83959 28.0716 9.46293 29.0197 9.46293C29.9679 9.46293 30.8772 9.83959 31.5477 10.51C32.2181 11.1805 32.5948 12.0898 32.5948 13.038V14.643C32.5948 16.0546 31.4717 17.3976 29.589 18.2306Z" fill="white"/>
</g>
<defs>
<linearGradient id="paint0_linear_7698_9730" x1="2.66" y1="38.8709" x2="39.2006" y2="2.33087" gradientUnits="userSpaceOnUse">
<stop stop-color="#00AEE9"/>
<stop offset="1" stop-color="#69FABD"/>
</linearGradient>
<clipPath id="clip0_7698_9730">
<rect width="28.0764" height="28" fill="white" transform="translate(7 7)"/>
</clipPath>
</defs>
</svg>

<svg width="42" height="42" viewBox="0 0 42 42" fill="none" xmlns="http://www.w3.org/2000/svg"><circle cx="21" cy="21" r="21" fill="url(#paint0_linear_7698_9730)"/><g clip-path="url(#clip0_7698_9730)"><path d="M29.02 7a6.053 6.053 0 00-6.058 6.038v6.695c-.625.042-1.262.068-1.924.068-.661 0-1.296.027-1.923.064v-6.827a6.058 6.058 0 00-12.115 0v16a6.058 6.058 0 0012.115 0v-6.694a28.441 28.441 0 011.923-.069c.662 0 1.296-.026 1.924-.064v6.827a6.058 6.058 0 0012.114 0v-16A6.053 6.053 0 0029.02 7zM13.057 9.474a3.574 3.574 0 013.575 3.564v7.09a20.376 20.376 0 00-5.148 1.455 9.36 9.36 0 00-1.996 1.191v-9.736a3.574 3.574 0 013.569-3.564zm3.575 19.564a3.575 3.575 0 01-7.15 0v-1.605c0-1.418 1.123-2.76 3.005-3.596a17.627 17.627 0 014.145-1.212v6.413zm12.388 3.565a3.573 3.573 0 01-3.575-3.565V21.95a20.376 20.376 0 005.147-1.455 9.354 9.354 0 001.997-1.192v9.736a3.573 3.573 0 01-3.57 3.565zm.569-14.372a17.598 17.598 0 01-4.144 1.211v-6.404a3.575 3.575 0 117.15 0v1.605c0 1.412-1.123 2.755-3.006 3.588z" fill="#fff"/></g><defs><linearGradient id="paint0_linear_7698_9730" x1="2.66" y1="38.871" x2="39.201" y2="2.331" gradientUnits="userSpaceOnUse"><stop stop-color="#00AEE9"/><stop offset="1" stop-color="#69FABD"/></linearGradient><clipPath id="clip0_7698_9730"><path fill="#fff" transform="translate(7 7)" d="M0 0h28.076v28H0z"/></clipPath></defs></svg>
